!!!!SEGMENT: pl-kk--kk-i-7--073_asola-giovanni-matteo--dum-complerentur.krn
!!!cenid: 16xx:912
!!!COM: Asola, Giovanni Matteo
!!!COM-rism: pe20000387
!!!CDT: <=1532-1609/10/01
!!!CNT: Italian
!!!OTL: Dum complerentur
!!!PDT:
!!!AGN: Sacred
!!!SMS-siglum: PL-Kk
!!!SMS-shelfmark: Kk.I.7
!!!NIFC-rismID: 300258150
!!!URL-scan: http://repozytorium.nifc.pl/skany/pl-kk-nut--i-7
!!!ONB-nifc: UWAGA: C (skan 0065, s.13), A (0151-0152, s.13-14), T (0228, s.13), B (0315, s.13). Następny utwór: Domie rex Deus Abraham
!!!SMS-variant:
!!!SMS-altvar:
**kern	**text	**kern	**text	**kern	**text	**kern	**text
*part4	*part4	*part3	*part3	*part2	*part2	*part1	*part1
*staff4	*staff4	*staff3	*staff3	*staff2	*staff2	*staff1	*staff1
*I"BASSVS.	*	*I"TENOR.	*	*I"ALTVS.	*	*I"CANTVS.	*
*I'B	*	*I'T	*	*I'A	*	*I'S	*
*clefF4	*	*clefC4	*	*clefC4	*	*clefC3	*
*k[]	*	*k[]	*	*k[]	*	*k[]	*
*M2/1	*	*M2/1	*	*M2/1	*	*M2/1	*
*met(C|)	*	*met(C|)	*	*met(C|)	*	*met(C|)	*
=1-	=1-	=1-	=1-	=1-	=1-	=1-	=1-
*all\right	*	*all\right	*	*all\right	*	*all\right	*
!	!	!	!	!LO:TX:t=P:problem:kreska pseudotaktowa	!	!	!
1.G	Dum	00r	.	0r	.	0r	.
*2\right	*	*	*	*	*	*	*
!LO:TX:t=P:problem:kreska pseudotaktowa	!	!	!	!	!	!	!
2E\	com-	.	.	.	.	.	.
=2-	=2-	=2-	=2-	=2-	=2-	=2-	=2-
!	!	!	!	!	!	!LO:TX:t=P:problem:kreska pseudotaktowa	!
1F	-ple-	.	.	2r	.	1r	.
.	.	.	.	1d	Dum	.	.
1G	-ren-	.	.	.	.	1.g	Dum
*	*	*	*	*2\right	*	*	*
!	!	!	!	!LO:TX:t=P:problem:kreska pseudotaktowa	!	!	!
.	.	.	.	2B\	com-	.	.
=3-	=3-	=3-	=3-	=3-	=3-	=3-	=3-
!LO:TX:t=P:problem:kreska pseudotaktowa	!	!LO:TX:t=P:problem:kreska pseudotaktowa	!	!	!	!	!
1C	-tur	1r	.	1c	-ple-	.	.
*	*	*	*	*	*	*2\right	*
.	.	.	.	.	.	2e\	Com-
2r	.	2r	.	1d	-ren-	1f	-ple-
*	*ij	*	*	*	*	*	*
1GG/	Dum	1d\	Dum	.	.	.	.
=4-	=4-	=4-	=4-	=4-	=4-	=4-	=4-
!	!	!	!	!	!	!LO:TX:t=P:problem:kreska pseudotaktowa	!
.	.	.	.	2G/	-tur	1g	-ren-
*	*	*2\right	*	*	*	*	*
!LO:TX:t=P:problem:kreska pseudotaktowa	!	!LO:TX:t=P:problem:kreska pseudotaktowa	!	!LO:TX:t=P:problem:kreska pseudotaktowa	!	!	!
2G\	com-	2B\	com-	2G/	di-	.	.
2F\	-ple-	1c	-ple-	2A/	-es	2c/	-tur
*	*	*	*	*	*	*	*ij
2E\	.	.	.	1c\	Pen-	2e\	Dum
=5-	=5-	=5-	=5-	=5-	=5-	=5-	=5-
!LO:TX:t=P:problem:kreska pseudotaktowa	!	!LO:TX:t=P:problem:kreska pseudotaktowa	!	!	!	!	!
1D	-ren-	1d	-ren-	.	.	2f\	Com-
!	!	!	!	!LO:TX:t=P:problem:kreska pseudotaktowa	!	!LO:TX:t=P:problem:kreska pseudotaktowa	!
.	.	.	.	2B\	-te-	2f\	-ple-
!LO:TX:t=P:problem:kreska pseudotaktowa	!	!	!	!	!	!	!
1C	-tur	2G/	.	2.c\	-co-	1e	-ren-
*	*Xij	*	*	*	*	*	*
.	.	1A\	-tur	.	.	.	.
.	.	.	.	4B\	.	.	.
=6-	=6-	=6-	=6-	=6-	=6-	=6-	=6-
!	!	!	!	!	!	!LO:TX:t=P:problem:kreska pseudotaktowa	!
1D	Di-	.	.	1A	.	1d	-tur
*	*	*	*	*	*	*	*Xij
!	!	!LO:TX:t=P:problem:kreska pseudotaktowa	!	!	!	!	!
.	.	2F/	-di-	.	.	.	.
2BB/	-es	2G/	-es	2B,\	-ſtes	2r	.
2.C/	Pen-	2.E/	Pen-	2.G/	di-	1e\	di-
=7-	=7-	=7-	=7-	=7-	=7-	=7-	=7-
.	.	.	.	.	.	.	.
4BB/	.	4F/	.	4A/	.	.	.
!LO:TX:t=P:problem:kreska pseudotaktowa	!	!	!	!LO:TX:t=P:problem:kreska pseudotaktowa	!	!LO:TX:t=P:problem:kreska pseudotaktowa	!
2GG/	.	1G	-te-	2B\	.	2d\	-es
2C/	.	.	.	2c,\	-es	2e\	Pen-
!	!	!LO:TX:t=P:problem:kreska pseudotaktowa	!	!	!	!	!
!	!	!LO:SIC:v:t=custos G	!	!	!	!	!
2D/	-te-	2F/	.	4A/	Pen-	2f\	-te-
!	!	!	!	!LO:TX:t=P:problem:kreska pseudotaktowa	!	!	!
.	.	.	.	4d\	-te-	.	.
!	!	!LO:LB:g=original	!	!	!	!	!
=8-	=8-	=8-	=8-	=8-	=8-	=8-	=8-
*lig	*	*lig	*	*	*	*	*
1E	-co-	1G	-co-	2.B\	-co-	2e\	-co-
.	.	.	.	.	.	1g	.
.	.	.	.	4c\	.	.	.
1D	.	1A	.	1d	.	.	.
!	!	!	!	!	!	!LO:TX:t=P:problem:kreska pseudotaktowa	!
.	.	.	.	.	.	2f\	.
*Xlig	*	*Xlig	*	*	*	*	*
=9-	=9-	=9-	=9-	=9-	=9-	=9-	=9-
!	!	!LO:TX:t=P:problem:kreska pseudotaktowa	!	!LO:TX:t=P:problem:kreska pseudotaktowa	!	!	!
!LO:TX:t=P:problem:kreska pseudotaktowa	!	!	!	!	!	!	!
1GG	-ſtes	1G,	-ſtes	1B,	-ſtes,	1g,	-ſtes,
0C	e-	0G	e-	0c	e-	0e	e-
=10-	=10-	=10-	=10-	=10-	=10-	=10-	=10-
.	.	.	.	.	.	.	.
!LO:TX:t=P:problem:kreska pseudotaktowa	!	!	!	!	!	!	!
!LO:SIC:v:t=custos D	!	!LO:TX:t=P:problem:kreska pseudotaktowa	!	!LO:TX:t=P:problem:kreska pseudotaktowa	!	!LO:TX:t=P:problem:kreska pseudotaktowa	!
1AA	-rant	1A	-rant	1c	-rant	1e	-rant
!LO:LB:g=original	!	!	!	!	!	!	!
=11-	=11-	=11-	=11-	=11-	=11-	=11-	=11-
1D	o-	1F	o-	1A	o-	1d	o-
!LO:TX:t=P:problem:kreska pseudotaktowa	!	!LO:TX:t=P:problem:kreska pseudotaktowa	!	!LO:TX:t=P:problem:kreska pseudotaktowa	!	!	!
1C	-mnes	1G	-mnes	1c	-mnes	1e,	-mnes
=12-	=12-	=12-	=12-	=12-	=12-	=12-	=12-
1.F	pa-	1.A	pa-	1.c	pa-	1.f	pa-
!	!	!	!	!LO:TX:t=P:problem:kreska pseudotaktowa	!	!LO:TX:t=P:problem:kreska pseudotaktowa	!
2F\	-ri-	2A/	-ri-	2c\	-ri-	2f\	-ri-
=13-	=13-	=13-	=13-	=13-	=13-	=13-	=13-
!	!	!	!	!LO:SIC:v:t=custos c	!	!	!
2F\	-ter	2A/	-ter	2c\	-ter	2f\	-ter
!	!	!	!	!LO:LB:g=original	!	!	!
1C	in	1G	in	1c	in	1e	in
!LO:TX:t=P:problem:kreska pseudotaktowa	!	!LO:TX:t=P:problem:kreska pseudotaktowa	!	!LO:TX:t=P:problem:kreska pseudotaktowa	!	!LO:TX:t=P:problem:rozdzielacz słów:global	!
!	!	!	!	!	!	!LO:SIC:v:t=custos d	!
2C/	e-	2G/	e-	2c\	e-	2e\	e-
!	!	!	!	!	!	!LO:LB:g=original	!
=14-	=14-	=14-	=14-	=14-	=14-	=14-	=14-
2D/	-o-	2F/	-o-	2A/	-o-	2d\	-o-
2C/	-dem	2G/	-dem	1c	-dem	2e\	-dem
1GG	lo-	1G	lo-	.	.	1d	lo-
!	!	!	!	!LO:TX:t=P:problem:kreska pseudotaktowa	!	!	!
.	.	.	.	2B\	lo-	.	.
=15-	=15-	=15-	=15-	=15-	=15-	=15-	=15-
!LO:TX:t=P:problem:kreska pseudotaktowa	!	!	!	!	!	!LO:TX:t=P:problem:kreska pseudotaktowa	!
1C	-co	2G,/	-co	2.c\	.	0e	-co
!	!	!LO:TX:t=P:problem:kreska pseudotaktowa	!	!	!	!	!
.	.	2G/	et	.	.	.	.
.	.	.	.	4B\	.	.	.
2r	.	2.c\	ſu-	2A/	.	.	.
!	!	!	!	!LO:TX:t=P:problem:kreska pseudotaktowa	!	!	!
2C/	et	.	.	2G/	-co	.	.
.	.	4c\	-bi-	.	.	.	.
=16-	=16-	=16-	=16-	=16-	=16-	=16-	=16-
2.F\	ſu-	2A/	-to	0r	.	2r	.
*	*	*	*ij	*	*	*	*
!	!	!LO:TX:t=P:problem:kreska pseudotaktowa	!	!	!	!	!
.	.	2A/	et	.	.	2c/	et
!LO:TX:t=P:problem:kreska pseudotaktowa	!	!	!	!	!	!	!
4F\	-bi-	.	.	.	.	.	.
2D/	-to	2.d\	ſu-	.	.	2.f\	Su-
*	*ij	*	*	*	*	*	*
2D/	et	.	.	.	.	.	.
!	!	!	!	!	!	!LO:TX:t=P:problem:kreska pseudotaktowa	!
.	.	4d\	-bi-	.	.	4f\	-bi-
=17-	=17-	=17-	=17-	=17-	=17-	=17-	=17-
2.G\	ſu-	2B\	-to	1r	.	2d,\	-to
*	*	*	*Xij	*	*	*	*
.	.	1G	et	.	.	2d\	et
!LO:TX:t=P:problem:kreska pseudotaktowa	!	!	!	!	!	!	!
4G\	-bi-	.	.	.	.	.	.
2E\	-to	.	.	2r	.	2.g\	Su-
*	*Xij	*	*	*	*	*	*
!	!	!	!	!LO:TX:t=P:problem:kreska pseudotaktowa	!	!	!
1C/	et	2.c\	ſu-	2G/	et	.	.
.	.	.	.	.	.	4g\	-bi-
=18-	=18-	=18-	=18-	=18-	=18-	=18-	=18-
.	.	.	.	2.c\	ſu-	2e\	-tò
.	.	4c\	-bi-	.	.	.	.
*	*	*	*	*	*	*	*ij
!	!	!LO:TX:t=P:problem:kreska pseudotaktowa	!	!	!	!	!
2.F\	ſu-	2A/	-to	.	.	1c	et
.	.	.	.	4c\	-bi-	.	.
*	*	*	*ij	*	*	*	*
.	.	2A/	et	2A,/	-to	.	.
4F\	-bi-	.	.	.	.	.	.
*	*	*	*	*	*ij	*	*
!LO:TX:t=P:problem:kreska pseudotaktowa	!	!	!	!LO:TX:t=P:problem:kreska pseudotaktowa	!	!LO:TX:t=P:problem:kreska pseudotaktowa:między nutą a kropką	!
2D/	-to	2.d\	ſu-	2A/	et	2.f\	Su-
=19-	=19-	=19-	=19-	=19-	=19-	=19-	=19-
*	*ij	*	*	*	*	*	*
2D/	et	.	.	2.d\	ſu-	.	.
!	!	!LO:SIC:v:t=custos B	!	!	!	!	!
.	.	4d\	-bi-	.	.	4f\	-bi-
!	!	!LO:LB:g=original	!	!	!	!LO:TX:t=P:problem:kreska pseudotaktowa	!
2.G\	ſu-	1B,	-to	.	.	2d,\	-tò
*	*	*	*Xij	*	*	*	*Xij
.	.	.	.	4d\	-bi-	.	.
.	.	.	.	2B,\	-to	1e	fa-
*	*	*	*	*	*Xij	*	*
4G\	-bi-	.	.	.	.	.	.
!LO:TX:t=P:problem:kreska pseudotaktowa	!	!	!	!	!	!	!
!LO:SIC:v:t=custos F	!	!	!	!LO:TX:t=P:problem:kreska pseudotaktowa	!	!	!
2C/	-to	1c\	fa-	2G/	fa-	.	.
*	*Xij	*	*	*	*	*	*
!LO:LB:g=original	!	!	!	!	!	!	!
=20-	=20-	=20-	=20-	=20-	=20-	=20-	=20-
1F	fa-	.	.	2A/	.	1f	-ctus
.	.	(<1A	-ctus	2F/	-ctus	.	.
2F\	-ctus	.	.	2A/	est	1c	est
!LO:TX:t=P:problem:kreska pseudotaktowa	!	!LO:TX:t=P:problem:kreska pseudotaktowa	!	!	!	!	!
2E\	.	2G/)	.	1c\	ſo-	.	.
=21-	=21-	=21-	=21-	=21-	=21-	=21-	=21-
!	!	!	!	!	!	!LO:TX:t=P:problem:kreska pseudotaktowa	!
1D	eſt	1F	est	.	.	1f	So-
!	!	!	!	!LO:TX:t=P:problem:kreska pseudotaktowa	!	!	!
.	.	.	.	2B\	.	.	.
!	!	!	!	!LO:TX:t=P:problem:kreska pseudotaktowa	!	!	!
4C/	So-	2.G/	ſo-	1c	-nus	1e	-nus
4D/	.	.	.	.	.	.	.
4E\	.	.	.	.	.	.	.
!LO:TX:t=P:problem:kreska pseudotaktowa	!	!LO:TX:t=P:problem:kreska pseudotaktowa	!	!	!	!	!
4F\	.	4A/	.	.	.	.	.
=22-	=22-	=22-	=22-	=22-	=22-	=22-	=22-
2G\	.	2B\	-nus	2r	.	2d\	de
!	!	!	!	!LO:TX:t=P:problem:kreska pseudotaktowa	!	!	!
2.C/	-nus	2c\	de	2G/	ſo-	2.e\	cae-
*	*	*lig	*	*	*	*	*
.	.	1G	cae-	2c\	-nus	.	.
4D/	.	.	.	.	.	4f\	.
!LO:TX:t=P:problem:kreska pseudotaktowa	!	!	!	!LO:TX:t=P:problem:kreska pseudotaktowa	!	!	!
2E\	de	.	.	2B\	de	1g\	.
=23-	=23-	=23-	=23-	=23-	=23-	=23-	=23-
1D	cae-	1A	.	1d	cae-	.	.
.	.	.	.	.	.	2f\	.
!	!	!	!	!	!	!LO:TX:t=P:problem:kreska pseudotaktowa	!
*	*	*Xlig	*	*	*	*	*
!	!	!LO:TX:t=P:problem:kreska pseudotaktowa	!	!LO:TX:t=P:problem:kreska pseudotaktowa	!	!	!
2GG/	-lo	1G	-lo	1d	-lo	2g\	-lo
!LO:TX:t=P:problem:kreska pseudotaktowa	!	!	!	!	!	!	!
2G\	Al-	.	.	.	.	2d\	Al-
=24-	=24-	=24-	=24-	=24-	=24-	=24-	=24-
2C/	-le-	0c	Al-	2r	.	2e\	-le-
!	!	!	!	!	!	!LO:TX:t=P:problem:kreska pseudotaktowa	!
!	!	!	!	!	!	!LO:SIC:v:t=custos c	!
2.F\	.	.	.	2.A/	Al-	2f\	-lu-
!	!	!	!	!	!	!LO:LB:g=original	!
.	.	.	.	.	.	4c/L	-ia
4E\	.	.	.	4B\	-le-	4d\	.
!	!	!	!	!LO:TX:t=P:problem:kreska pseudotaktowa	!	!	!
!	!	!	!	!LO:SIC:v:t=custos G	!	!	!
4C/	.	.	.	2c\	-lu-	4e\	.
!LO:TX:t=P:problem:kreska pseudotaktowa	!	!	!	!	!	!	!
4D/	.	.	.	.	.	4f\	.
!	!	!	!	!LO:PB:g=original	!	!	!
=25-	=25-	=25-	=25-	=25-	=25-	=25-	=25-
4E\	.	0B	-le-	4G/	-ia	2g\	.
4F\	.	.	.	4A/	.	.	.
!LO:TX:t=P:problem:kreska pseudotaktowa	!	!	!	!	!	!LO:TX:t=P:problem:kreska pseudotaktowa	!
2G\	.	.	.	4B\	.	2d\	Al-
.	.	.	.	4c\	.	.	.
*	*	*	*	*	*ij	*	*
4GG/	.	.	.	2d\	Al-	2.g\	-le-
4AA/	.	.	.	.	.	.	.
!	!	!	!	!LO:TX:t=P:problem:kreska pseudotaktowa	!	!	!
4BB/	.	.	.	2G/	-le-	.	.
4C/	.	.	.	.	.	8f\L	.
.	.	.	.	.	.	8e\J	.
=26-	=26-	=26-	=26-	=26-	=26-	=26-	=26-
2D/	.	0A	-lu-	2d\	-lu-	2f\	.
2.AA/	.	.	.	2c\	-ia	2.e\	.
.	.	.	.	2c\	Al-	.	.
4BB/	.	.	.	.	.	4d\	.
!	!	!	!	!LO:TX:t=P:problem:kreska pseudotaktowa	!	!	!
4C/	.	.	.	2c\	-le-	4e\	lu-
!LO:TX:t=P:problem:kreska pseudotaktowa	!	!	!	!	!	!LO:TX:t=P:problem:kreska pseudotaktowa	!
4D/	.	.	.	.	.	4f\	.
=27-	=27-	=27-	=27-	=27-	=27-	=27-	=27-
!LO:SIC:v:t=custos C	!	!LO:TX:t=P:problem:kreska pseudotaktowa	!	!	!	!	!
2E\	.	00G	-ia	2B\	-lu-	2g,\	-ia
!LO:LB:g=original	!	!	!	!	!	!	!
*	*	*	*	*	*	*	*ij
1C	.	.	.	1e	-ia	2g\	Al-
*	*	*	*	*	*Xij	*	*
.	.	.	.	.	.	2c/	-le-
!	!	!	!	!LO:TX:t=P:problem:kreska pseudotaktowa	!	!	!
!LO:TX:t=P:problem:kreska pseudotaktowa	!	!	!	!	!	!LO:TX:t=P:problem:kreska pseudotaktowa	!
2BB/	.	.	.	2d\	A[l]-	2d\	-lu-
=28-	=28-	=28-	=28-	=28-	=28-	=28-	=28-
*lig	*	*	*	*	*	*	*
1C	-lu-	.	.	4c\	-le-	2e\	-ia
.	.	.	.	4d\	.	.	.
.	.	.	.	4e\	.	2.c/	Al-
.	.	.	.	4c\	.	.	.
!	!	!	!	!LO:TX:t=P:problem:kreska pseudotaktowa	!	!	!
1GG	.	.	.	1d	-lu-	.	.
.	.	.	.	.	.	8B/L	-le-
.	.	.	.	.	.	8A/J	.
!	!	!	!	!	!	!LO:TX:t=P:problem:kreska pseudotaktowa	!
.	.	.	.	.	.	2B/	-lu-
*Xlig	*	*	*	*	*	*	*
=29-	=29-	=29-	=29-	=29-	=29-	=29-	=29-
!LO:TX:t=P:problem:kreska pseudotaktowa	!	!	!	!	!	!LO:TX:t=P:problem:kreska pseudotaktowa	!
1C	-ia	2r	.	2G/	-ia	1c	-ia
*	*	*	*	*	*ij	*	*Xij
.	.	1G	tan-	2c\	Al-	.	.
2r	.	.	.	2B\	-le-	1r	.
!	!	!LO:TX:t=P:problem:kreska pseudotaktowa	!	!	!	!	!
1C/	tan-	2G/	-quam	2c\	-lu-	.	.
=30-	=30-	=30-	=30-	=30-	=30-	=30-	=30-
!	!	!	!	!LO:TX:t=P:problem:kreska pseudotaktowa	!	!	!
.	.	2.c\	Spi-	1G	-ia	2r	.
*	*	*	*	*	*Xij	*	*
!LO:TX:t=P:problem:kreska pseudotaktowa	!	!	!	!	!	!LO:TX:t=P:problem:kreska pseudotaktowa	!
2C/	-quam	.	.	.	.	2c/	tan-
.	.	4c\	-ri-	.	.	.	.
2.F\	Spi-	2A/	-tus	0r	.	2c/	-qua(m)
.	.	1d\	Ve-	.	.	2.f\	Spi-
4F\	-ri-	.	.	.	.	.	.
=31-	=31-	=31-	=31-	=31-	=31-	=31-	=31-
2D/	-tus	.	.	.	.	.	.
.	.	.	.	.	.	4f\	-ri-
!	!	!LO:TX:t=P:problem:kreska pseudotaktowa	!	!	!	!LO:TX:t=P:problem:kreska pseudotaktowa	!
1G	Ve-	2d\	-he-	.	.	2d\	-t(us)
!	!	!	!	!LO:TX:t=P:problem:kreska pseudotaktowa	!	!	!
.	.	1B	-men-	1r	.	1.g	Ve-
!LO:TX:t=P:problem:kreska pseudotaktowa	!	!	!	!	!	!	!
2G\	-he-	.	.	.	.	.	.
=32-	=32-	=32-	=32-	=32-	=32-	=32-	=32-
!	!	!LO:TX:t=P:problem:kreska pseudotaktowa	!	!	!	!	!
1E	-men-	1G	-tis	2r	.	.	.
.	.	.	.	2G/	tan-	2g\	-he-
!LO:TX:t=P:problem:kreska pseudotaktowa	!	!	!	!	!	!	!
1C	-tis	2r	.	2G/	-quam	1.e	-men-
!	!	!LO:TX:t=P:problem:kreska pseudotaktowa	!	!	!	!	!
!	!	!LO:SIC:v:t=custos A	!	!LO:TX:t=P:problem:kreska pseudotaktowa:między nutą a kreską	!	!	!
.	.	2G/	tan-	2.c\	Spi-	.	.
!	!	!LO:LB:g=original	!	!	!	!	!
=33-	=33-	=33-	=33-	=33-	=33-	=33-	=33-
2r	.	2A/	-quam	.	.	.	.
.	.	.	.	4c\	-ri-	.	.
*	*ij	*	*	*	*	*	*
!	!	!	!	!LO:TX:t=P:problem:kreska pseudotaktowa	!	!LO:TX:t=P:problem:kreska pseudotaktowa	!
1D	tan-	2.F/	Spi-	2A/	-tus	2d\	-tis
.	.	.	.	2d\	Ve-	2r	.
.	.	4F/	-ri-	.	.	.	.
*	*	*	*	*	*	*	*ij
!LO:TX:t=P:problem:kreska pseudotaktowa	!	!LO:TX:t=P:problem:kreska pseudotaktowa	!	!LO:TX:t=P:problem:kreska pseudotaktowa	!	!	!
!	!	!	!	!LO:SIC:v:t=custos B	!	!	!
2D/	-quam	2A/	-tus	2d\	-he-	2d\	tan-
!	!	!	!	!LO:LB:g=original	!	!	!
=34-	=34-	=34-	=34-	=34-	=34-	=34-	=34-
2.G\	Spi-	2G/	Ve-	1B	-men-	2d\	-quam
.	.	2.B\	.	.	.	2.g\	Spi-
4G\	-ri-	.	.	.	.	.	.
!	!	!	!	!LO:TX:t=P:problem:kreska pseudotaktowa	!	!	!
2E\	-tus	.	.	1G	-tis	.	.
.	.	8A\L	.	.	.	4g\	-ri-
.	.	8B\J	.	.	.	.	.
!LO:TX:t=P:problem:kreska pseudotaktowa	!	!	!	!	!	!LO:TX:t=P:problem:kreska pseudotaktowa	!
!	!	!	!	!	!	!LO:SIC:v:t=custos e	!
[2C/	Ve-	4c\	.	.	.	2e\	-tus
*	*	*	*	*	*	*	*Xij
!	!	!LO:TX:t=P:problem:kreska pseudotaktowa	!	!	!	!	!
.	.	4d\	.	.	.	.	.
!	!	!	!	!	!	!LO:LB:g=original	!
=35-	=35-	=35-	=35-	=35-	=35-	=35-	=35-
!LO:N:xstem:cue	!	!	!	!	!	!	!
4C/]	.	1e	.	2.c\	Spi-	2e\	Ve-
4D/	.	.	.	.	.	.	.
4E\	.	.	.	.	.	1g	-he-
!LO:TX:t=P:problem:kreska pseudotaktowa	!	!	!	!	!	!	!
4F\	.	.	.	4c\	-ri-	.	.
2G\	.	2d\	-he-	2B\	-tus	.	.
2A\	-he-	1c\	.	4c\	Ve-	2f\	.
!	!	!	!	!LO:TX:t=P:problem:kreska pseudotaktowa	!	!	!
.	.	.	.	4c\	-he-	.	.
=36-	=36-	=36-	=36-	=36-	=36-	=36-	=36-
1G	-men-	.	.	1d	-men-	1g	-men-
!	!	!LO:TX:t=P:problem:kreska pseudotaktowa	!	!	!	!	!
.	.	2B\	-men-	.	.	.	.
!LO:TX:t=P:problem:kreska pseudotaktowa	!	!	!	!	!	!	!
!LO:TX:a:t=2	!	!	!	!LO:TX:t=P:problem:kreska pseudotaktowa	!	!LO:TX:t=P:problem:kreska pseudotaktowa	!
!LO:TX:b:t=2	!	!	!	!	!	!	!
0C	-tis	2c,\	-tis,	0.c	-tis	0e	-tis
*	*Xij	*	*	*	*	*	*
.	.	1G/	et	.	.	.	.
=37-	=37-	=37-	=37-	=37-	=37-	=37-	=37-
.	.	.	.	.	.	.	.
!	!	!LO:TX:t=P:problem:kreska pseudotaktowa	!	!	!	!	!
.	.	2G/	re-	.	.	.	.
2r	.	2A/	-ple-	.	.	2r	.
1C/	et	2G/	-uit	.	.	1e\	et
=38-	=38-	=38-	=38-	=38-	=38-	=38-	=38-
!	!	!	!	!LO:TX:t=P:problem:kreska pseudotaktowa	!	!	!
.	.	4E/	to-	00r	.	.	.
.	.	4F/	.	.	.	.	.
!LO:TX:t=P:problem:kreska pseudotaktowa	!	!	!	!	!	!LO:TX:t=P:problem:kreska pseudotaktowa	!
2C/	re-	4G/	.	.	.	2e\	re-
!	!	!LO:TX:t=P:problem:kreska pseudotaktowa	!	!	!	!	!
.	.	4E/	.	.	.	.	.
2D/	-ple-	2F/	.	.	.	2d\	-ple-
!LO:TX:t=P:problem:kreska pseudotaktowa	!	!	!	!	!	!	!
!LO:SIC:v:t=custos F	!	!	!	!	!	!	!
2C/	-uit	2G/	.	.	.	2e\	-uit
!LO:LB:g=original	!	!	!	!	!	!	!
=39-	=39-	=39-	=39-	=39-	=39-	=39-	=39-
2F\	to-	2A/	.	.	.	2c/	to-
!	!	!	!	!	!	!LO:TX:t=P:problem:kreska pseudotaktowa	!
2E\	-tam	1G	-tam	.	.	2c/	-tam
*	*	*	*	*	*	*lig	*
1D	do-	.	.	.	.	1d	do-
!	!	!LO:TX:t=P:problem:kreska pseudotaktowa	!	!	!	!	!
.	.	2F/	do-	.	.	.	.
=40-	=40-	=40-	=40-	=40-	=40-	=40-	=40-
!LO:TX:t=P:problem:kreska pseudotaktowa	!	!LO:TX:t=P:problem:kreska pseudotaktowa	!	!	!	!	!
1C	-mu(m)	1G	-mu(m)	2r	.	1e	.
.	.	.	.	1c	et	.	.
*	*	*	*	*	*	*Xlig	*
!	!	!	!	!	!	!LO:TX:t=P:problem:kreska pseudotaktowa	!
2r	.	2r	.	.	.	1A	-mum
*	*ij	*	*	*	*	*	*
!	!	!	!	!LO:TX:t=P:problem:kreska pseudotaktowa	!	!	!
1F\	et	1A\	et	2c\	re-	.	.
=41-	=41-	=41-	=41-	=41-	=41-	=41-	=41-
.	.	.	.	2d\	-ple-	0r	.
!LO:TX:t=P:problem:kreska pseudotaktowa	!	!LO:TX:t=P:problem:kreska pseudotaktowa	!	!	!	!	!
2F\	re-	2A/	re-	2c\	-uit	.	.
2G\	-ple-	2B\	-ple-	2B\	to-	.	.
!	!	!LO:TX:t=P:problem:kreska pseudotaktowa	!	!	!	!	!
!	!	!LO:SIC:v:t=custos G	!	!LO:TX:t=P:problem:kreska pseudotaktowa	!	!	!
2F\	-uit	2c\	-uit	2A/	-tam	.	.
!	!	!LO:LB:g=original	!	!	!	!	!
=42-	=42-	=42-	=42-	=42-	=42-	=42-	=42-
!	!	!	!	!	!	!LO:TX:t=P:problem:kreska pseudotaktowa	!
2E\	to-	2G/	to-	2B\	do-	1r	.
2C/	-tam	1A	.	1c	.	.	.
1D	do-	.	.	.	.	1.f	V-
.	.	4G/	.	2B\	.	.	.
!	!	!LO:TX:t=P:problem:kreska pseudotaktowa	!	!	!	!	!
.	.	4F/	.	.	.	.	.
=43-	=43-	=43-	=43-	=43-	=43-	=43-	=43-
!LO:TX:t=P:problem:kreska pseudotaktowa	!	!	!	!	!	!	!
1C	-mum	2G/	-ta(m)	1c	.	.	.
*	*Xij	*	*	*	*	*	*
.	.	1c	do-	.	.	2e\	-bi
!	!	!	!	!LO:TX:t=P:problem:kreska pseudotaktowa	!	!LO:TX:t=P:problem:kreska pseudotaktowa	!
1r	.	.	.	0G	-mum	1d	e-
!	!	!LO:TX:t=P:problem:kreska pseudotaktowa	!	!	!	!	!
.	.	2B\	.	.	.	.	.
=44-	=44-	=44-	=44-	=44-	=44-	=44-	=44-
1.C	V-	2c\	-mu(m)	.	.	2.c/	-rant
.	.	2G/	to-	.	.	.	.
.	.	.	.	.	.	4d\	.
.	.	2E/	-ta(m)	1rA	.	2e\	Se-
!LO:TX:t=P:problem:kreska pseudotaktowa	!	!	!	!	!	!LO:TX:t=P:problem:kreska pseudotaktowa	!
2BB/	-bi	1G/	do-	.	.	2d\	.
=45-	=45-	=45-	=45-	=45-	=45-	=45-	=45-
1AA	e-	.	.	2rF	.	2.c/	-den-
.	.	2F/	.	1c	V-	.	.
.	.	.	.	.	.	4d\	.
!	!	!LO:TX:t=P:problem:kreska pseudotaktowa	!	!	!	!	!
2GG/	-rant	1G	-mu(m),	.	.	2e\	.
!LO:TX:t=P:problem:kreska pseudotaktowa	!	!	!	!LO:TX:t=P:problem:kreska pseudotaktowa	!	!LO:TX:t=P:problem:kreska pseudotaktowa	!
2GG/	ſe-	.	.	2B\	-bi	2d\	-tes
=46-	=46-	=46-	=46-	=46-	=46-	=46-	=46-
4AA/	-den-	1.c	V-	1A	e-	2r	.
4BB/	.	.	.	.	.	.	.
4C/	.	.	.	.	.	1e	V-
!LO:TX:t=P:problem:kreska pseudotaktowa	!	!	!	!	!	!	!
4D/	.	.	.	.	.	.	.
4E\	.	.	.	2G/	-rant	.	.
4F\	.	.	.	.	.	.	.
!	!	!	!	!LO:TX:t=P:problem:kreska pseudotaktowa	!	!	!
!	!	!	!	!LO:SIC:v:t=custos E	!	!LO:TX:t=P:problem:kreska pseudotaktowa	!
2.G\	.	2B\	-bi	2G/	ſe-	2d\	-bi
!	!	!	!	!LO:LB:g=original	!	!	!
=47-	=47-	=47-	=47-	=47-	=47-	=47-	=47-
.	.	1A	e-	1D	-den-	2.d\	e-
8F\L	.	.	.	.	.	.	.
8E\J	.	.	.	.	.	.	.
!LO:TX:t=P:problem:kreska pseudotaktowa	!	!	!	!	!	!	!
2F\	.	.	.	.	.	.	.
!	!	!	!	!	!	!LO:TX:t=P:problem:kreska pseudotaktowa	!
.	.	.	.	.	.	4c/	.
!LO:TX:t=P:problem:kreska pseudotaktowa	!	!	!	!	!	!	!
1G	-tes	2G/	-rant	2G/	-tes;	4B/	.
.	.	.	.	.	.	4A/	.
!	!	!LO:TX:t=P:problem:kreska pseudotaktowa	!	!	!	!	!
.	.	2G/	ſe-	2.d\	V-	2B/	.
=48-	=48-	=48-	=48-	=48-	=48-	=48-	=48-
2rF	.	2.d\	-den-	.	.	2G/	-rant
.	.	.	.	4c\	.	.	.
*	*ij	*	*	*	*	*	*ij
1G	V-	.	.	4B\	.	1d	V-
!	!	!	!	!LO:TX:t=P:problem:kreska pseudotaktowa	!	!	!
.	.	4c\	.	4A/	.	.	.
.	.	2B\	.	2G/	.	.	.
!LO:TX:t=P:problem:kreska pseudotaktowa	!	!LO:TX:t=P:problem:kreska pseudotaktowa	!	!	!	!LO:TX:t=P:problem:kreska pseudotaktowa	!
!	!	!	!	!	!	!LO:SIC:v:t=custos e	!
2F\	-bi	2A/	.	2A/	-bi-	2d\	-bi
!	!	!	!	!	!	!LO:LB:g=original	!
=49-	=49-	=49-	=49-	=49-	=49-	=49-	=49-
1E	e-	2G/	-tes	2B\	e-	2e\	e-
*	*	*	*ij	*	*	*	*
!	!	!	!	!LO:TX:t=P:problem:kreska pseudotaktowa	!	!LO:TX:t=P:problem:kreska pseudotaktowa	!
.	.	2B\	V-	2G/	-rant	2g\	-rant
*	*	*	*	*	*	*	*Xij
2D/	-rant	2d\	-bi	1A	ſe-	2f\	Se-
!LO:TX:t=P:problem:kreska pseudotaktowa	!	!LO:TX:t=P:problem:kreska pseudotaktowa	!	!	!	!	!
2AA/	ſe-	2c\	e-	.	.	2.e\	-den-
=50-	=50-	=50-	=50-	=50-	=50-	=50-	=50-
*lig	*	*	*	*	*	*	*
1E	-den-	2B\	-rant	4G/	-den-	.	.
.	.	.	.	4A/	.	4f\	.
.	.	2G/	ſe-	4B\	.	1g	.
!	!	!	!	!LO:TX:t=P:problem:kreska pseudotaktowa	!	!	!
.	.	.	.	4c\	.	.	.
!LO:SIC:v:t=custos GG	!	!	!	!	!	!	!
1D	.	1A	-den-	1d	.	.	.
!	!	!	!	!	!	!LO:TX:t=P:problem:kreska pseudotaktowa	!
.	.	.	.	.	.	2f\	.
*Xlig	*	*	*	*	*	*	*
!LO:LB:g=original	!	!	!	!	!	!	!
=51-	=51-	=51-	=51-	=51-	=51-	=51-	=51-
2GG,/	-tes	2G/	-tes	2.B\	.	2g,\	-tes
*	*Xij	*	*Xij	*	*	*	*
!LO:TX:t=P:problem:kreska pseudotaktowa	!	!LO:TX:t=P:problem:kreska pseudotaktowa	!	!	!	!	!
!	!	!LO:SIC:v:t=custos A	!	!	!	!	!
2G\	Al-	2G/	Al-	.	.	2d\	Al-
!	!	!	!	!LO:TX:t=P:problem:kreska pseudotaktowa	!	!	!
.	.	.	.	4c\	.	.	.
!	!	!LO:LB:g=original	!	!	!	!	!
*	*	*lig	*	*	*	*	*
2D/	-le-	1A	-le-	2d,\	tes	1f	-le-
!LO:TX:t=P:problem:kreska pseudotaktowa	!	!	!	!	!	!	!
2F\	-lu-	.	.	2.c\	Al-	.	.
=52-	=52-	=52-	=52-	=52-	=52-	=52-	=52-
!	!	!	!	!	!	!LO:TX:t=P:problem:kreska pseudotaktowa	!
4C/	.	1c	.	.	.	1e	-lu-
4D/	.	.	.	4B\	.	.	.
4E\	.	.	.	4G/	-le-	.	.
!	!	!	!	!LO:TX:t=P:problem:kreska pseudotaktowa	!	!	!
4F\	.	.	.	4A/	.	.	.
*	*	*Xlig	*	*	*	*	*
2G\	-ia	1B	-lu-	4B\	.	2d\	-ia
.	.	.	.	4c\	.	.	.
*	*	*	*	*	*	*	*ij
!LO:TX:t=P:problem:kreska pseudotaktowa	!	!	!	!	!	!	!
2GG/	.	.	.	1d\	-lu-	2g\	Al-
=53-	=53-	=53-	=53-	=53-	=53-	=53-	=53-
*	*ij	*	*	*	*	*	*
!	!	!LO:TX:t=P:problem:kreska pseudotaktowa	!	!	!	!	!
2D/	Al-	1A,	-ia	.	.	2f\	-le-
!	!	!	!	!LO:TX:t=P:problem:kreska pseudotaktowa	!	!	!
2D/	-le-	.	.	2d\	-ia	2d\	-lu-
*	*	*	*	*	*ij	*	*
!	!	!	!	!	!	!LO:TX:t=P:problem:kreska pseudotaktowa	!
2C/	-lu-	1c	Al-	2G/	Al-	1e	-ia
*	*	*	*	*	*	*	*Xij
!LO:TX:t=P:problem:kreska pseudotaktowa	!	!	!	!	!	!	!
2AA/	.	.	.	2A/	.	.	.
=54-	=54-	=54-	=54-	=54-	=54-	=54-	=54-
2.E\	.	1B	-le-	2B\	-le-	2re	.
!	!	!	!	!LO:TX:t=P:problem:kreska pseudotaktowa	!	!	!
.	.	.	.	2G/	.	2e\	Al-
4D/	.	.	.	.	.	.	.
!	!	!	!	!LO:SIC:v:t=custos A	!	!	!
2C/	.	1A	-lu-	2c\	-lu-	2e\	-le-
!	!	!	!	!LO:LB:g=original	!	!	!
!LO:TX:t=P:problem:kreska pseudotaktowa	!	!	!	!LO:TX:t=P:problem:kreska pseudotaktowa	!	!LO:TX:t=P:problem:kreska pseudotaktowa	!
2D/	.	.	.	2A/	.	2f\	-lu-
=55-	=55-	=55-	=55-	=55-	=55-	=55-	=55-
!	!	!LO:TX:t=P:problem:kreska pseudotaktowa	!	!	!	!	!
2GG/	-ia	1G	-ia	2B\	-ia	2g\	-ia
*	*Xij	*	*	*	*Xij	*	*ij
2.C/	Al-	.	.	2.c\	Al-	1e	Al-
.	.	1c	Al-	.	.	.	.
4D/	.	.	.	4B\	.	.	.
!	!	!	!	!LO:TX:t=P:problem:kreska pseudotaktowa:między nutą a kropką	!	!LO:TX:t=P:problem:kreska pseudotaktowa	!
4E\	.	.	.	2.G/	.	2e\	-le-
!LO:TX:t=P:problem:kreska pseudotaktowa	!	!	!	!	!	!	!
4F\	.	.	.	.	.	.	.
=56-	=56-	=56-	=56-	=56-	=56-	=56-	=56-
2G\	.	2B\	.	.	.	2d\	-lu-
.	.	.	.	4A/	.	.	.
2E\	-le-	2G/	-le-	4B\	.	2.g\	.
.	.	.	.	4c\	.	.	.
!LO:TX:t=P:problem:kreska pseudotaktowa	!	!LO:TX:t=P:problem:kreska pseudotaktowa	!	!	!	!	!
1D	-lu-	1A	-lu-	2d\	.	.	.
.	.	.	.	.	.	8f\L	.
.	.	.	.	.	.	8e\J	.
!	!	!	!	!LO:TX:t=P:problem:kreska pseudotaktowa	!	!	!
.	.	.	.	2A/	-le-	2f\	.
=57-	=57-	=57-	=57-	=57-	=57-	=57-	=57-
!	!	!	!	!	!	!LO:TX:t=P:problem:kreska pseudotaktowa	!
2GG/	-ia	0G	-ia	2.d\	.	1g	-ia
*	*ij	*	*	*	*	*	*Xij
2.G\	Al-	.	.	.	.	.	.
.	.	.	.	4c\	.	.	.
.	.	.	.	4B\	.	2re	.
4F\	.	.	.	4A/	-lu-	.	.
!	!	!	!	!LO:TX:t=P:problem:kreska pseudotaktowa	!	!	!
4E\	.	.	.	2G/	-ia	2.g\	Al-
!LO:TX:t=P:problem:kreska pseudotaktowa	!	!	!	!	!	!	!
4D/	.	.	.	.	.	.	.
=58-	=58-	=58-	=58-	=58-	=58-	=58-	=58-
*	*	*	*ij	*	*	*	*
1.C	.	0G	Al-	2.c\	Al-	.	.
.	.	.	.	.	.	4f\	.
.	.	.	.	.	.	4e\	.
!	!	!	!	!	!	!LO:TX:t=P:problem:kreska pseudotaktowa	!
.	.	.	.	4d\	.	4d\	.
.	.	.	.	2e\	-le-	2c/	.
!	!	!	!	!LO:TX:t=P:problem:kreska pseudotaktowa	!	!	!
2GG/	-le-	.	.	2d\	.	2B/	-le-
=59-	=59-	=59-	=59-	=59-	=59-	=59-	=59-
!LO:TX:t=P:problem:kreska pseudotaktowa	!	!	!	!	!	!LO:TX:t=P:problem:kreska pseudotaktowa	!
0C	-lu-	[0Gl	-leluia	0c	-lu-	0e	-lu-
*	*	*	*Xij	*	*	*	*
=60-	=60-	=60-	=60-	=60-	=60-	=60-	=60-
!LO:TX:b:t=AMDG.	!	!LO:TX:b:t=AMDG. GMDH.	!	!LO:TX:b:t=AMDG	!	!LO:TX:b:t=A.M.D.G.	!
0GG;	-ia	0G]	.	0Bl	-ia	0dl;	-ia
*	*Xij	*	*	*	*	*	*
==	==	==	==	==	==	==	==
*-	*-	*-	*-	*-	*-	*-	*-
!!!system-decoration: [s1,s2,s3,s4]
!!!RDF**kern: < = below
!!!RDF**kern: l = terminal long
!!!ENC: Marta Lawrence
!!!END: 2021-03-20
!!!ENC: Andrzej Kubiczek
!!!END: 2021-03-03
